Origami/64x64/apps/kile.svg

<svg width="64" height="64" version="1" xmlns="http://www.w3.org/2000/svg">
 <path d="m4.0507982 32.000818c-0.0118 0.33399-0.050799 0.661981-0.050799 0.999972 4e-7 15.511562 12.487648 27.99921 27.999211 27.99921s27.99921-12.487648 27.99921-27.99921c0-0.337671-0.03904-0.665262-0.05078-0.999972-0.527985 15.041576-12.77564 26.999238-27.949212 26.999238-15.173972 0-27.421227-11.957662-27.949212-26.999238z" style="opacity:.2"/>
 <rect transform="matrix(0,-1,-1,0,0,0)" x="-60" y="-60" width="55.998" height="55.998" rx="27.999" ry="27.999" style="fill:#1da6e8"/>
 <path d="M 32 4.0019531 C 16.488437 4.0019531 4 16.488437 4 32 C 4 32.113445 4.0112809 32.224116 4.0175781 32.335938 C 4.3691114 17.134609 16.711158 5 32 5 C 47.288842 5 59.630889 17.134609 59.982422 32.335938 C 59.988693 32.224116 60 32.113445 60 32 C 60 16.488437 47.511563 4.0019531 32 4.0019531 z" style="fill:#ffffff;opacity:.1"/>
 <g transform="matrix(1.9999436,0,0,1.9999436,2.000056,1.0012972)" style="opacity:.2">
  <path d="m6 9v14h3v-4.199l4 4.199h3l-5-7 5-7h-3l-4 4.199v-4.199zm11 3v5.0001h8v-5h-2v3h-1v-3h-2v3h-1v-3zm0 6v2h8v-2zm0 3v2h2v-2zm3 0v2h5v-2z"/>
 </g>
 <g transform="matrix(1.9999436 0 0 1.9999436 2.000056 .0017484)" style="fill:#ffffff">
  <path d="m6 9v14h3v-4.199l4 4.199h3l-5-7 5-7h-3l-4 4.199v-4.199zm11 3v5.0001h8v-5h-2v3h-1v-3h-2v3h-1v-3zm0 6v2h8v-2zm0 3v2h2v-2zm3 0v2h5v-2z"/>
 </g>
</svg>

<svg xmlns="http://www.w3.org/2000/svg" width="64" height="64" version="1">
 <path style="opacity:0.2" d="m 4.0507982,32.000818 c -0.0118,0.33399 -0.050799,0.661981 -0.050799,0.999972 C 3.9999996,48.512352 16.487647,61 31.99921,61 47.510773,61 59.99842,48.512352 59.99842,33.00079 c 0,-0.337671 -0.03904,-0.665262 -0.05078,-0.999972 C 59.419655,47.042394 47.172,59.000056 31.998428,59.000056 16.824456,59.000056 4.5772013,47.042394 4.0492162,32.000818 Z"/>
 <rect style="fill:#1da6e8" width="55.998" height="55.998" x="-60" y="-60" rx="27.999" ry="27.999" transform="matrix(0,-1,-1,0,0,0)"/>
 <path style="opacity:0.1;fill:#ffffff" d="M 32 4.0019531 C 16.488437 4.0019531 4 16.488437 4 32 C 4 32.113445 4.0112809 32.224116 4.0175781 32.335938 C 4.3691114 17.134609 16.711158 5 32 5 C 47.288842 5 59.630889 17.134609 59.982422 32.335938 C 59.988693 32.224116 60 32.113445 60 32 C 60 16.488437 47.511563 4.0019531 32 4.0019531 z"/>
 <g style="opacity:0.2" transform="matrix(1.9999436,0,0,1.9999436,2.000056,1.0012972)">
  <path d="M 6,9 6,23 9,23 9,18.801 13,23 16,23 11,16 16,9 13,9 9,13.199 9,9 Z m 11,3 0,5.0001 8,0 0,-5 -2,0 0,3 -1,0 0,-3 -2,0 0,3 -1,0 0,-3 z m 0,6 0,2 8,0 0,-2 z m 0,3 0,2 2,0 0,-2 z m 3,0 0,2 5,0 0,-2 z"/>
 </g>
 <g style="fill:#ffffff" transform="matrix(1.9999436,0,0,1.9999436,2.000056,0.0017484)">
  <path d="M 6,9 6,23 9,23 9,18.801 13,23 16,23 11,16 16,9 13,9 9,13.199 9,9 Z m 11,3 0,5.0001 8,0 0,-5 -2,0 0,3 -1,0 0,-3 -2,0 0,3 -1,0 0,-3 z m 0,6 0,2 8,0 0,-2 z m 0,3 0,2 2,0 0,-2 z m 3,0 0,2 5,0 0,-2 z"/>
 </g>
</svg>
